!!!OTL: Op der Het do stet e Bam, S. 40f
!!!id: L0033
**kern
*clefG2
*k[f#]
*G:
{8g
=1
8g
2g
2g
=2
2g
2a
=3
4b
4g
4a
4a
=4
4b
4g
2a}
=5
{4g
4g
4g
4f#
=6
4e
4e
4d}
=7
{4d
=8
4g
4g
4a
4a
=9
[1dd
=10
4dd]
4cc
8b
8a
4g
=11
2a
4g}
4r
==
*-
!!!minrhy: 8
!!!meters: 4/4 ]  ZZ[3
!!!cut: Op der Het do stet e Bam, S. 40f
!!!reg: Luxemburg
!!!trd: Die Luxemburger Volkslieder &auml;lterer Zeit, Luxemburg 1904 posth.
!!!rhy1:   X__X__  X__X__  X_X_X_X_  X_X_X__   (x2)
!!!rhy2: X_X_X_X_  X_X_X_
!!!key: L0033  08  G 4/4 ]  ZZ[3
!!!mod: HEPTATONIK IONISCH]  AMBITUS[8
!!!kad: 2-51
!!!akz: 11123232_11-6-5_12555321_
!!!fot: 'a__b__c__
!!!for: 'a__b__c__
!!!fok: '/__\__^a_
!! PHRAS[VORWIEGEND VOLLTAKTIG]
!!!fkt: ??
!! FONTAINE, Ed.:
!! PR[55] 2K[0] 2G[6] 3K[0] 3G[0] 4A[13] 4Ü[0] 5A[0] 6K[0] 6G[0]
!! 7K[0] 7G[0] 8A[0] MEHR[0] SI[19] ABS[31] SR[6] SP[13]
!! ST[10] 2k[3] 2g[13] 3k[0] 3g[0] 4d[10] 4ü[0] 5d[0] 6k[0] 6g[0]
!! 7k[0] 7g[0] 8d[0] mehr[0] si[26] dm[-7] sr[16] sp[10]
!! 1F[3] 2F[56] 3F[28] 4F[0] LF[0] 2P[3] 3P[0] 4P[0] TRI[0] DF[5] AB[32]
!! TF[0] U3K[0] U3[0] U4[0] U4Ü[0] U5[19] U6K[0] U6[0] U7K[0] U7[0]
!! N1[59] N2K[0] N2[13] N3K[0] N3[3] N4[3] N4Ü[0] N5[3] N6K[0] N6[0]
!!!n7k: 0] N7[0] O1[0] O2K[0] O2[0] O3K[0] O3[0] HÖ[0
!!!RNB: symbol: &auml;      = a umlaut  (UTF-8: Å„)
